public/svgs/twin/demo-border.svg

<svg viewBox="0 0 193 50" fill="none" xmlns="http://www.w3.org/2000/svg">
    <g id="Subtract">
        <mask id="path-1-inside-1_11615_1809" fill="white">
            <path fill-rule="evenodd" clip-rule="evenodd" d="M0 13.1395V50H193V0H13.1395L0 13.1395Z"/>
        </mask>
        <path d="M0 50H-2V52H0V50ZM0 13.1395L-1.41421 11.7253L-2 12.3111V13.1395H0ZM193 50V52H195V50H193ZM193 0H195V-2H193V0ZM13.1395 0V-2H12.3111L11.7253 -1.41421L13.1395 0ZM2 50V13.1395H-2V50H2ZM193 48H0V52H193V48ZM191 0V50H195V0H191ZM13.1395 2H193V-2H13.1395V2ZM11.7253 -1.41421L-1.41421 11.7253L1.41421 14.5537L14.5537 1.41421L11.7253 -1.41421Z"
              fill="current" mask="url(#path-1-inside-1_11615_1809)"/>
    </g>
</svg>

<svg xmlns="http://www.w3.org/2000/svg" fill="none" viewBox="0 0 193 50"><mask id="a" fill="#fff"><path fill-rule="evenodd" d="M0 13.14V50h193V0H13.14z" clip-rule="evenodd"/></mask><path fill="current" d="M0 50h-2v2h2zm0-36.86-1.414-1.415-.586.586v.829zM193 50v2h2v-2zm0-50h2v-2h-2zM13.14 0v-2h-.829l-.586.586zM2 50V13.14h-4V50zm191-2H0v4h193zm-2-48v50h4V0zM13.14 2H193v-4H13.14zm-1.415-3.414-13.14 13.14 2.83 2.828 13.139-13.14z" mask="url(#a)"/></svg>
